!!!OTL: 1344. Beim Ausmarsch.
!!!ODT: 1848
!!!ARE: Europa, Mitteleuropa, Deutschland, Sueddeutschland
!!!SCT: E1344
!!!TXL: @@DE
!!!YEM: Copyright 1995, estate of Helmut Schaffrath.
**kern	**text
*ICvox	*
*M3/4	*
*k[b-e-]	*
*B-:	*
=1	=1
!LO:TX:a:t=Mäßig langsam und ernst.	!
!LO:TX:a:t=Mel. 1848.	!
{8f	Brü-
8b-	-der,
8b-	Brü-
8b-	-der,
8b-	jetʒt
8cc	gehts
=2	=2
(4b-/	in
8a)	.
8g	den
4f}	Krieg,
=3	=3
{8g	wer
8g	kann
4g	ſagen
4b-	was
=4	=4
4.f	da
8e-	ge-
4d}	-ſchieht?
=5	=5
{4f	Wer
4f	kann
4b-	den
=6	=6
4.g	Tag
8g	er-
4g}	-forſchen,
=7	=7
{4b-	wer
4a	kann
4cc	den
=8	=8
8b-\L	Tag
8a	.
8b-J	.
8cc	er-
4dd}	-forſchen,
=9	=9
{(8ee-	wenn
8gg)	wir
4ff	kommen
8ee-	aus
8ee-	dem
=10	=10
2.dd;}	Krieg?
=11	=11
{4f	Wer
4f	kann
4b-	den
=12	=12
4.g	Tag
8g	er-
4g}	-forſchen,
=13	=13
{4b-	wer
4a	kann
4cc	den
=14	=14
8b-\L	Tag
8a	.
8b-J	.
8cc	er-
4dd}	-forſchen,
=15	=15
{(8ee-	wenn
8gg)	wir
4ff	kommen
8ee-	aus
8ee-	dem
=16	=16
2.dd;}	Krieg?
==	==
!!!AGN: Staende -, Soldaten -, Kriegs - Lied
!!!ONB: ESAC (Essen Associative Code) Database: ERK3
!!!AMT: simple triple
!!!AIN: vox
!!!EED: Helmut Schaffrath
!!!EEV: 1.0
!!!GTL: Staendelieder (Berufslieder). 1. Soldaten- und Kriegslieder. Soldatenlieder seit dem 30jaehr. Kriege.
!!!URL-scan: https://rosdok.uni-rostock.de/mcrviewer/recordIdentifier/rosdok_ppn745177999/iview2/phys_0227.iview2?x=-128.77276441889285&y=208.75311370717827&scale=0.5870222003877487&rotation=0&layout=singlePageLayout
!!!ENC: Anna Maria Matuszewska
!!!EEV: 2024/12/30
*-	*-
